X: 785
T: Jinnian lieshi ge
L: 1/8
M: 2/4
K: G
B2B B [I:setbarnb 1]| 
A B d e | 
G4 | 
A B A G | 
E4 | 
d e g e/ g/ | 
d4 | 
e g e d | 
c4 | 
B d A B | 
d e d e | 
G E G G | 
A B A G | 
E G F E | 
D4 | 
d d d3/ A/ | 
G A/ G/F2 | 
A B E G | 
A4 | 
d d B A | 
d g e d | 
A B e d | 
B4 | 
A B d e | 
G4 | 
A B A G | 
E4 |]

@@@ Tune index: 9659
